flaticon/coffee-shop/tea-cup.svg

<svg xmlns="http://www.w3.org/2000/svg" width="32" height="32" viewBox="0 0 24 24">
    <path d="M 19.800781 3.199219 L 18.800781 3.199219 L 16.640625 0.320312 C 16.480469 0.121094 16.238281 0 16 0 L 8 0 C 7.761719 0 7.519531 0.121094 7.359375 0.320312 L 5.199219 3.199219 L 4.199219 3.199219 C 3.761719 3.199219 3.398438 3.558594 3.398438 4 L 3.398438 5.601562 C 3.398438 6.039062 3.761719 6.398438 4.199219 6.398438 L 4.632812 6.398438 L 4.855469 8.890625 C 4.777344 8.9375 4.707031 9 4.640625 9.078125 C 4.480469 9.238281 4.398438 9.480469 4.441406 9.71875 L 5.359375 20.039062 C 5.390625 20.390625 5.628906 20.664062 5.945312 20.761719 L 6.160156 23.28125 C 6.199219 23.679688 6.558594 24 6.960938 24 L 17.039062 24 C 17.441406 24 17.800781 23.679688 17.839844 23.28125 L 18.054688 20.761719 C 18.371094 20.667969 18.601562 20.398438 18.601562 20.078125 L 19.519531 9.71875 C 19.558594 9.480469 19.480469 9.238281 19.320312 9.078125 C 19.265625 9.011719 19.207031 8.957031 19.140625 8.914062 L 19.367188 6.398438 L 19.800781 6.398438 C 20.238281 6.398438 20.601562 6.039062 20.601562 5.601562 L 20.601562 4 C 20.601562 3.558594 20.238281 3.199219 19.800781 3.199219 Z M 8 0.800781 L 16 0.800781 L 17.800781 3.199219 L 6.199219 3.199219 Z M 5.640625 8.800781 L 5.441406 6.398438 L 15 6.398438 L 15 8.800781 Z M 17.039062 23.199219 L 6.960938 23.199219 L 6.761719 20.800781 L 17.238281 20.800781 Z M 18.761719 9.601562 L 17.839844 19.960938 L 17.800781 20 L 6.199219 20 L 5.238281 9.640625 L 15 9.609375 L 15 10.238281 L 13.519531 11.71875 C 13.441406 11.800781 13.398438 11.878906 13.398438 12 L 13.398438 15.601562 C 13.398438 15.839844 13.558594 16 13.800781 16 L 17 16 C 17.238281 16 17.398438 15.839844 17.398438 15.601562 L 17.398438 12 C 17.398438 11.878906 17.359375 11.800781 17.28125 11.71875 L 15.800781 10.238281 L 15.800781 9.609375 Z M 15.398438 10.960938 L 16.601562 12.160156 L 16.601562 15.199219 L 14.199219 15.199219 L 14.199219 12.160156 Z M 18.320312 8.800781 L 15.800781 8.800781 L 15.800781 6.398438 L 18.519531 6.398438 Z M 19.800781 5.601562 L 4.199219 5.601562 L 4.199219 4 L 19.800781 4 Z M 19.800781 5.601562"/>
</svg>

<svg xmlns="http://www.w3.org/2000/svg" width="32" height="32" viewBox="0 0 24 24">
    <path d="M19.8 3.2h-1L16.64.32A.842.842 0 0 0 16 0H8a.842.842 0 0 0-.64.32L5.2 3.2h-1c-.438 0-.802.359-.802.8v1.602c0 .437.364.796.801.796h.434l.222 2.493a.872.872 0 0 0-.214.187.731.731 0 0 0-.2.64L5.36 20.04c.032.352.27.625.586.723l.215 2.52c.04.398.399.718.8.718h10.08c.401 0 .76-.32.8-.719l.215-2.52c.316-.093.547-.363.547-.683l.918-10.36a.743.743 0 0 0-.2-.64.787.787 0 0 0-.18-.164l.227-2.516h.434c.437 0 .8-.359.8-.796V4c0-.441-.363-.8-.8-.8zM8 .8h8l1.8 2.4H6.2zm-2.36 8l-.199-2.402H15v2.403zm11.4 14.4H6.96l-.198-2.4h10.476zm1.722-13.598L17.84 19.96 17.8 20H6.2L5.237 9.64 15 9.61v.628l-1.48 1.48a.375.375 0 0 0-.122.282v3.602c0 .238.16.398.403.398H17c.238 0 .398-.16.398-.398V12c0-.121-.039-.2-.117-.281l-1.48-1.48v-.63zm-3.364 1.359l1.204 1.2v3.038h-2.403V12.16zM18.32 8.8H15.8V6.398h2.72zm1.48-3.2H4.2V4h15.6zm0 0"/>
</svg>
